X:1
T:Silesia, 77.77
T:Silesian air
T:Silesia, 77.77
T:Public Domain
C:Silesian air
Z:Public Domain
%%score ( 1 2 ) ( 3 4 )
L:1/8
M:4/4
K:F
V:1 treble 
V:2 treble 
V:3 bass 
V:4 bass 
V:1
 [CF]6 [CF]2 | [CF]2 [CF]2 [CE]2 [CF]2 | ([FA]4 [EG]4) | [EG]6 [EG]2 | [EG]2 [EG]2 F2 [EG]2 | %5
 ([GB]4 [FA]4) | [FA]6 [FA]2 | [FB]2 [FA]2 [EG]2 F2 | [Fd]8 | [Gc]2 [FA]2 [Fc]2 [DB]2 | %10
 [B,D]4 [CE]4 | [CF]8 |] %12
V:2
 x8 | x8 | x8 | x8 | x4 F2 x2 | x8 | x8 | x6 F2 | x8 | x8 | x8 | x8 |] %12
V:3
 [F,A,]6 [F,A,]2 | [F,A,]2 [A,C]2 [G,B,]2 [F,A,]2 | [C,C]8 | [C,C]6 [C,C]2 | %4
 [C,C]2 [B,C]2 [A,C]2 [G,C]2 | [F,C]8 | [F,C]6 [F,C]2 | [F,D]2 [F,C]2 [G,B,]2 [A,C]2 | B,8 | %9
 [E,G,]2 [F,A,]2 [A,,F,]2 [B,,F,]2 | [G,,G,]4 [C,G,]4 | [F,,A,]8 |] %12
V:4
 x8 | x8 | x8 | x8 | x8 | x8 | x8 | x8 | B,8 | x8 | x8 | x8 |] %12

